teeny/solid/arrow-up-small.svg

<svg width="15" height="15" viewBox="0 0 15 15" fill="none" xmlns="http://www.w3.org/2000/svg">
<path fill-rule="evenodd" clip-rule="evenodd" d="M7.50001 3.79291L10.2071 6.50001L9.50001 7.20712L8.00001 5.70712V11H7.00001V5.70712L5.50001 7.20712L4.7929 6.50001L7.50001 3.79291Z" fill="black"/>
</svg>

<svg viewBox="0 0 15 15" xmlns="http://www.w3.org/2000/svg"><path fill-rule="evenodd" d="M7.5 3.79l2.7 2.7 -.71.7 -1.5-1.5v5.29h-1v-5.3l-1.5 1.5 -.71-.71 2.7-2.71Z"/></svg>
